X:1
T:Victory is Nigh
T:Victory is Nigh
T:Frank Henry Shaul
T:Frank Henry Shaul, 1916
T:Public Domain Courtesy of the Cyber Hymnal™
T:Public Domain Courtesy of the Cyber Hymnal™
C:Frank Henry Shaul
Z:Public Domain
Z:Courtesy of the Cyber Hymnal™
%%score ( 1 2 ) ( 3 4 )
L:1/8
Q:1/4=108
M:4/4
K:Bb
V:1 treble 
V:2 treble 
V:3 bass 
V:4 bass 
V:1
 [B,D]>[CE] [DF]>[^CG] [DF]>[B,D] [DB]>[E^c] | [Fd]2 [Fd]2 z2 x6 | %2
w: 1.~March- ing on to bat- tle ’gainst the|hosts of|
w: 2.~Shout- ing loud ho- san- nas as we|on- ward|
w: 3.~“Vol- un- teers are want- ed,” hear the|Mas- ter|
w: 4.~Faith- ful to your du- ty, halt not|by the|
 [Fc]>[F=B] [Fc]>[Fd] [Fc]>[F_B] | [FA]>[EG] | [DF]2 [DF]2 [EF]4 | %5
w: wrong, Fol- low- ing our cap-|tain with|a hap- py|
w: go, With de- ter- min- a-|tion sin|to o- ver-|
w: say, Will you be en- list-|ed in|the might- y|
w: way, Keep the ban- ner float-|ing for|the King al-|
 [DF]>[^C=E] [DF]>[EG] [DF]>[B,D] [DB]>[E^c] | [Fd]2 [Ec]2 [DB]2 [Fd]2 | %7
w: song, Heed- ing not the ma- ny who|are loi- tering by,|
w: throw; Sa- tan’s hosts are trem- bling, foes|be- fore us fly,|
w: fray? Ev- ery Christ- ian an- swer, say-|ing, “Here am I,”|
w: way, Great re- ward He’ll give His sol-|diers by and by,|
 [=Ec]>[E=B] [Ec]>[Ed] [Ec]2 [E_B]2 | [EA]>[EB] [EA]>[EG] (3:2:1z x161/24 || %9
w: For vic- to- ry is nigh,|yes, vic- to- ry|
w: For vic- to- ry is nigh,|yes, vic- to- ry|
w: Then vic- to- ry is nigh,|yes, vic- to- ry|
w: For vic- to- ry is nigh,|yes, vic- to- ry|
"^Refrain" [Fd]>[=E^c] [Fd]>[Ec] [Fd]2 (3:2:1z x65/24 | [Ae]>[Ad] [Ae]>[Ad] (3:2:1z x161/24 | %11
w: is nigh. * * *||
w: is nigh. * * *||
w: is nigh. Vic- to- ry|is nigh! yes, vic-|
w: is nigh. * * *||
 [FA]>[FB] [Fc]>[Fd] [Fe]>[Fd] [Fc]>[FB] | [FA]2 [=EG]2 (3:2:1z x161/24 | %13
w: ||
w: ||
w: to- ry is nigh! Shout with voice tri-|umph- ant|
w: ||
 [Fd]>[=E^c] [Fd]>[Ec] [Fd]2 (3:2:1z x65/24 | [Ge]>[Ge] [GB]>[Gc] d4 | %15
w: ||
w: ||
w: to the vault- ed sky;|Vic- to- ry is nigh!|
w: ||
 [Gd]>[Ge] [Ge]>[Gc] [Ff]>[Fd] [GB]>[=Ec] | [Fd]2 [Ec]2 [DB]4 |] %17
w: ||
w: ||
w: yes, vic- to- ry is nigh! We will|win the bat-|
w: ||
V:2
 x8 | x4 [Fd]4 (3FBd x2 | x6 | x2 | x8 | x8 | x8 | x8 | x4 [Ec]4 (3:2:2FG (3ABc || %9
 x6 [FB]2 (3:2:2^cd | x4 [Ae]4 (3:2:2FG(3AGF | x8 | x4 F4 (3:2:2GF (3ABc | x6 [FB]2 (3:2:2^cd | %14
 x4 (^F2 A2) | x8 | x8 |] %17
V:3
 [B,,F,]>[B,,F,] [B,,F,]>[B,,=E,] [B,,F,]>[B,,F,] [B,,F,]>[B,,F,B,] | z z z2 x8 | %2
 [F,A,]>[F,A,] [F,A,]>[F,B,] [F,C]>[F,D] | [F,C]>[F,A,] | [F,B,]2 [F,B,]2 B,4 | %5
 [B,,B,]>[B,,B,] [B,,B,]>[B,,B,] [B,,B,]>[B,,F,] [B,,B,]>[B,,B,] | %6
 [B,,B,]2 [B,,B,]2 [B,,F,]2 [B,,B,]2 | [C,B,]>[C,B,] [C,B,]>[C,B,] [C,B,]2 [C,D]2 | %8
 [C,C]>[C,D] [C,C]>[C,B,] z2 x43/8 || [B,,B,]>[B,,B,] [B,,B,]>[B,,B,] [B,,B,]2 [B,,B,]2 x11/8 | %10
 [F,C]>[F,C] [F,C]>[F,C] [D,C]4 x27/8 | [F,C]>[F,B,] [F,A,]>[F,B,] [F,C]>[F,B,] [F,A,]>[F,D] | %12
 [F,C]2 [C,B,]2 (3(z G,F, (3E,D,C,) x27/8 | %13
 [B,,B,]>[B,,B,] [B,,B,]>[B,,B,] ([B,,B,]2 [D,B,]2) x11/8 | [E,B,]>[E,B,] [E,B,]>[E,G,] (A,2 C2) | %15
 [E,B,]>[D,=B,] [C,C]>[E,G,] [D,B,]>[=B,,B,] [G,C]>[C,G,] | [F,B,]2 [F,A,]2 z2 B,,,2 |] %17
V:4
 x8 | [B,,B,]2 F,, ([B,,B,]2 B,,) ([B,,B,]4 B,,2) | x6 | x2 | x4 (C,2 F,,2) | x8 | x8 | x8 | %8
 x4 [F,A,]4 F,,2 x11/8 || x75/8 | x91/8 | x8 | x4 [F,A,]4 x27/8 | x75/8 | x4 D,4 | x8 | %16
 x4 [B,,B,]4 |] %17

